X:1
T:Millbrae
R:Reel
C:Ronald Cooper
M:C|
K:A
af|"A"eA (3.A.A.A "A7"eAce|"D"fedf "A"eaga|"F#"fedc "Bm"dcBA|"E7"G2B2B2 af|
|"A"eA (3.A.A.A "A7"eAce|"D"fedf "A"eaga|"Bm"fedc "E7"dBed|"A"c2 [E2A2][C2A2]:|
a2|"E7"(3gab eg bege|"A"aAce agfe|"F#"fedc "Bm"dcBA|"E7"G2B2[E2B2]"Adim"[=c2a2]|
"E7"(3gab eg bege|"A"aAce agfe|"Bm"fedc "E7"dBed|"A"c2[A2E2][A2C2]"Adim"[=c2a2]|
"E7"(3gab eg bege|"A"aAce agfe|"F#"fedc "Bm"dcBA|"E7"G2B2[E2B2]af|
"A"eA (3.A.A.A "A7"eAce|"D"fedf "A"eaga|"Bm"fedc "E7"dBed|"A"c2[A2E2][A2C2]|]
